X:1
T:Qui consolabatur me
T:Jean de Castro
T:Source : Chansons, madrigaux et motetz à 3 parties---Anvers---P.Phalèse---1582. Editor : André Vierendeels (10/10/15). 
T:Notes : Original clefs : G2, C2, C3 Editorial accidentals above the staff 
T:Qui consolabatur me
C:Jean de Castro
%%score [ 1 2 3 ]
L:1/8
Q:1/4=140
M:2/2
K:F
V:1 treble nm="Superius" snm="S"
V:2 treble nm="Altus" snm="A"
V:3 treble-8 nm="Tenor" snm="T"
V:1
 z8 | z8 | F8- | F8 | G8- | G4 G4 | A4 G4 | B4 A4 | z4 B4 | c8- | c4 c4 | d4 B4 | c8 | z4 d4- | %14
w: ||Qui|_|con-|* so-|la- ba-|tur me,|qui|con-|* so-|la- ba-|tur,|qui-|
 d4 e4- | e4 c4 | d4 e4 | f8 | e4 z2 c2 | =B4 c4 | z8 | z8 | z4 G4 | E2 F2 G4 | F8 | z4 f4 | %26
w: _ con-|* so-|la- ba-|tur|me, re-|ces- sit,|||re-|ces- sit a|me,|que-|
 c4 f4- | f4 e4 | c8- | c4 G4- | G4 G4 | A4 c4 | B2 c2 d2 e2 | f2 e2 d2 c2 | B4 A4 | G6 G2 | %36
w: ro, que-|* ro,|que-|* ro,|_ que-|ro quod|vo- * * *|||* lu-|
 A4 c4 | d4 f4 | e8- | e8 | z4 A4 | B4 A4 | G4 F4 | G8 | z4 c4- | c4 d4- | d4 c4 | B4 A4 | G8 | %49
w: i, quod|vo- lu-|i,|_|et|non in-|ve- ni-|o,|et|_ non|_ in-|ve- ni-|o,|
 z4 F4 | G8- | G4 A4 | B6 B2 | A8- | A8 | z4 c4- | c4 c4 | c4 c4 | d4 d4 | G8 | c8- | c4 B4 | A8- | %63
w: et-|non|_ in-|ve- ni-|o,|_|fun-|* dent|o- cu-|li me-|i|la-|* chry-|mas,|
 A8 | f8- | f4 e4 | d4 A4- | A4 A4 | B8- | B4 B4 | B4 B4 | A8 | z4 d4- | d4 c4 | B4 A4 | G4 c4- | %76
w: _|la-|* chry-|mas, fun-|* dent|o-|* cu-|li me-|i,|fun-|* dent|o- cu-|li me-|
 c4 B4 | A8- | A4 A4 | =B8 | z4 =B4 | ^c8 | d8 | d4 d4 | d8 | e8 | d8- | d4 c4 | B4 B4 | A8- | A8 | %91
w: * i|la-|* chry-|mas,|qui-|a|re-|ple- tus|sum|a-|ma-|* ri-|tu- di-|ne,|_|
 z4 A4 | B4 B4 | B4 c4 | B8 | A8 | G4 F4 | G8- | G4 G4 | A8 | z4 A4 | B4 B4 | B4 A4 | G4 d4 | %104
w: qui-|a re-|ple- tus|sum|a-|ma- ri-|tu|_ di-|ne,|qui-|a re-|ple- tus|sum a-|
 c4 B4 | A4 A4 | G8- | G8- | G8- | G8- | G8 |] %111
w: ma- ri-|tu- di-|ne,|_||||
V:2
 C8- | C8 | D8- | D4 D4 | D8 | E8- | E4 E4 | F8 | z4 D4 | A8- | A4 A4 | B4 F4 | A4 A4 | =B8- | %14
w: Qui|_|con-|* so|la-|ba-|* tur|me,|qui|con-|* so-|la- ba-|tur, qui|con-|
 B4 =B4 | c4 F2 G2 | A2 B2 c4- |"^-natural" c4 B4 | c4 G4 | G4 A2 F2 | G4 A4 | z8 | z4 C4 | %23
w: * so-|la- ba- *||* tur|me, re-|ces- sit, re-|ces- sit,||re-|
 D2 F2 E4 | F4 c4- | c4 A4 | z4 A4 | G8 | z4 F4- | F4 E4 | z4 E4 | F4 A4 | G2 A2 B2 G2 | %33
w: ces- sit a|me, que-|* ro,|que-|ro,|que-|* ro,|que-|ro quod|vo- * * *|
 A2 G2 F2 E2 | D2 C2 F4- | F4 E4 | F4 A4 | A4 F4 | G4 z2 G2 | A4 G4 | F8- | F4 E4 | D4 A4 | %43
w: ||* lu-|i, quod|vo- lu-|i, et|non in-|ve-|* ni-|o, et|
 =B4 c4 | F2 G2 A4- | A4 G4 | A4 A4 | G4 F4 | D4 E4 | F4 C4 | E4 E4 | D2 E2 F4- | F4 E4 | F8 | %54
w: non in-|ve- * *|* ni-|o, et|non in-|ve- ni-|o, et|non in-|ve- * *|* ni-|o,|
 z4 D4 | A8 | A4 A4 | G4 A4- | A4 F4 | E8- | E4 D4 | E8- | E8 | A8- | A4 G4 | F8 | z4 ^F4- | %67
w: fun-|dent|o- cu-|li me-|* i|la-|* chry-|mas,|_|la-|* chry-|mas,|fun-|
 F4 ^F4 | G8- | G4 G4 | G4 G4 | F8 | z4 B4- | B4 A4 | G4 F4 | E8 | G8 | ^F4 G4- | G4 ^F4 | G4 D4 | %80
w: * dent|o-|* cu-|li me-|i,|fun-|* dent|o- cu-|li|me-|i la-|* chry-|mas, qui-|
 G8 | A8 | B8- | B4 A4 | B8 | A8 | A4 G4 | F4 E4 | D4 D4 | E8 | F8 | F4 F4 | F8 | G8- | G4 F4- | %95
w: a|re-|ple-|* tus|sum|a-|ma- ri-|tu- di-|ne, qui-|a|re-|ple- tus|sum|a-|* ma-|
 F4 E4 | D4 C4 | D4 D4 | B8 | z4 A4 | G4 F4- | F4 G4 | z4 F4 | B8 | A4 G4- |"^#" G4 F4 | G4 _E4- | %107
w: * ri-|tu- di-|ne, qui-|a|re-|ple- tus|_ sum|a-|ma-|ri- tu|_ di-|ne, a-|
 E4 C4- | C4 D4 | _E4 E4 | D8 |] %111
w: * ma-|* ri-|tu- di-|ne.|
V:3
 z8 | z8 | z8 | B8- | B8 | c8- | c4 c4 | d8 | B8 | f8- | f8 | B8 | z4 f4 | g8- | g4 g4 | a6 g2 | %16
w: |||Qui|_|con-|* so-|la-|ba-|tur|_|me,|qui|con-|* so-|la- *|
 f4 e4 | d8 | c8 | z4 f4 | e4 f4 | z8 | c8 | B2 A2 G4 | F8- | F8 | z4 f4 | c8 | z4 f4 | c8 | %30
w: * ba-|tur|me,|re-|ces- sit,||re-|ces- sit a|me,|_|que-|ro,|que-|ro,|
 z4 c4 | F8 | z8 | z8 | z8 | c8 | F4 f4 | d6 d2 | c8 | z4 c4 | d8- | d4 c4 | B4 A4 | G4 c4 | %44
w: que-|ro,||||que-|ro quod|vo- lu-|i,|et|non|_ in-|ve- ni-|o, et|
 d4 c4 | A4 B4 | A8 | z4 d4 | =B4 c4 | F6 F2 | c4 c4 | B4 A4 | G6 G2 | F8 | z4 f4- | f4 f4 | %56
w: non in-|ve- ni-|o,|et|non in-|ve- ni-|o, et|non in-|ve- ni-|o,|fun-|* dent|
 f4 f4 | e4 f4 | d8 | c8- | c4 B4 | A8- | A8 | f8- | f4 e4 | d8- | d8- | d8 | z4 G4- | G4 G4 | %70
w: o- cu-|li me-|i|la-|* chry-|mas,|_|la-|* chry-||mas,|_|fun-|* dent|
 G4 G4 | d4 d4 | B8- | B8- | B8 | c8- | c4 d4 | d4 d4- | d4 d4 | G8- | G8 | z8 | g8 | g4 ^f4 | g8 | %85
w: o- cu-|li me-|i|_||la-|* chry-|mas, la-|* chry-|mas,|_||qui-|a re-|ple-|
 c8 | d8- | d8 | z4 B4 | c8 | d8 | d4 d4 | d8 | e8 | d8- | d4 c4 | B4 A4 | G8 | z4 B4 | c8- | %100
w: tus|sum,|_|qui-|a|re-|ple- tus|sum|a-|ma-|* ri-|tu- di-|ne,|qui-|a|
 c4 d4 | d4 G4 | d4 d4 | B8 | c4 d4- | d4 d4 | G4 c4 | _e8- | e4 d4 | c4 c4 | G8 |] %111
w: _ re-|ple- tus|sum a-|ma-|ri- tu-|* di-|ne, a-|ma-|* ri-|tu- di-|ne.|

